!!!SOCIAL_FUNCTION:	cremation legend songs
!!!PDT:	1932
!!!OTL: No_4_The_Wonder-boy_Decides_to_Change_His_Name.krn
!!!REG: Southwest
!!!LANG: Non-Tone
!!!LING_GROUP: Yuman-Cochimi
**kern	**kern
*staff2	*staff1
=1-	=1-
*clefF4	*clefF4
*k[f#c#g#]	*k[f#c#g#]
*M2/4	*M2/4
4GG#/	8E\L
.	8E\J
4GG#/	8E\L
.	8A\J
=2	=2
4GG#/	8A\L
.	8A\J
4GG#/	8A\L
.	8F#\J
=3	=3
4GG#/	8A\L
.	8A\J
4GG#/	8A\L
.	8E\J
=4	=4
2r	8F#\L
.	8A\J
.	8E\
.	8r
=5	=5
2r	4E\
.	8E\L
.	8F#\J
=6	=6
2r	8C#/
.	8r
.	4C#/
=7||	=7||
*M3/4	*M3/4
2.r	8E\L
.	8E\J
.	8C#/
.	8r
.	4r
=8||	=8||
*M2/4	*M2/4
2r	8E\L
.	8E\J
.	8E/L
.	16C#/L
.	16C#/JJ
=9||	=9||
*M5/8	*M5/8
3...r	8E\L
.	8F#\
.	8A\
.	8E\J
.	8r
=10||	=10||
*M2/4	*M2/4
2r	4E\
.	8E\L
.	8F#\J
=11	=11
2r	8C#/
.	8r
.	4C#/
=12	=12
2r	8E\L
.	8E\J
.	8C#/
.	8r
==	==
*-	*-
